X: 8639
T: Croppies' March, The
R: polka
M: 2/4
K: Dmajor
|:B|A>B AF|AB d>e|fa ef|dB Bd|
A>B AF|AB d>e|fa ef|d2- d:|
e|fa a>f|gb bg|fa ef|dB Bd|
fa af|gb b>c'|d'c'- c'a|b2- b>c'|
d'b c'a|b>a fe|fa ef|dB Bd|
A>B AF|AB d>e|fa ef|d2- d||

